storage/app/icons/simpleicons/brands/infracost.svg

<svg role="img" viewBox="0 0 24 24" xmlns="http://www.w3.org/2000/svg"><title>Infracost</title><path d="M15.5526 0.44419L8.04 7.98337H12.0699C14.7831 7.98337 16.02 10.546 16.02 11.9876V23.3593C16.02 23.7131 16.3058 24 16.6584 24H23.3217C23.6743 24 23.9601 23.7141 23.9606 23.3603C23.9652 20.0654 24 13.2819 24 7.98337C24 3.34017 20.3118 0.33410 16.6801 0.00515C16.2585 -0.03303 15.8518 0.14382 15.5526 0.44419Z M0 0.64C0 0.28654 0.28797 0 0.6432 0H1.4472C1.80243 0 2.0904 0.28654 2.0904 0.64V7.36C2.0904 7.71346 1.80243 8 1.4472 8H0.6432C0.28797 8 0 7.71346 0 7.36V0.64ZM3.618 0C3.26277 0 2.9748 0.28654 2.9748 0.64V7.36C2.9748 7.71346 3.26277 8 3.618 8H4.422C4.77723 8 5.0652 7.71346 5.0652 7.36V0.64C5.0652 0.28654 4.77723 0 4.422 0H3.618ZM6.5928 0C6.23757 0 5.9496 0.28654 5.9496 0.64V7.36C5.9496 7.71346 6.23757 8 6.5928 8H8.04L6.32638 9.7051C6.08514 9.94514 5.9496 10.2707 5.9496 10.6102V23.36C5.9496 23.7135 6.23757 24 6.5928 24H7.3968C7.75203 24 8.04 23.7135 8.04 23.36V8V0.64C8.04 0.28654 7.75203 0 7.3968 0H6.5928ZM0.37678 15.6251C0.13553 15.8651 0 16.1907 0 16.5302V23.36C0 23.7135 0.28797 24 0.6432 24H1.4472C1.80243 24 2.0904 23.7135 2.0904 23.36V14.3063C2.0904 14.1637 1.9172 14.0923 1.81589 14.1931L0.37678 15.6251ZM2.9748 13.5702C2.9748 13.2307 3.11033 12.9051 3.35158 12.6651L4.7907 11.2331C4.892 11.1323 5.0652 11.2037 5.0652 11.3463V23.36C5.0652 23.7135 4.77723 24 4.422 24H3.618C3.26277 24 2.9748 23.7135 2.9748 23.36V13.5702Z"/></svg>

<svg xmlns="http://www.w3.org/2000/svg" viewBox="0 0 24 24"><title>Infracost</title><path d="M15.553.444 8.04 7.984h4.03c2.713 0 3.95 2.562 3.95 4.004v11.371a.64.64 0 0 0 .638.641h6.664a.64.64 0 0 0 .639-.64c.004-3.295.039-10.078.039-15.377C24 3.34 20.312.334 16.68.005c-.421-.038-.828.139-1.127.44M0 .64C0 .287.288 0 .643 0h.804c.355 0 .643.287.643.64v6.72c0 .353-.288.64-.643.64H.643A.64.64 0 0 1 0 7.36zM3.618 0a.64.64 0 0 0-.643.64v6.72c0 .353.288.64.643.64h.804a.64.64 0 0 0 .643-.64V.64A.64.64 0 0 0 4.422 0zm2.975 0a.64.64 0 0 0-.643.64v6.72c0 .353.288.64.643.64H8.04L6.326 9.705c-.24.24-.376.566-.376.905v12.75c0 .354.288.64.643.64h.804a.64.64 0 0 0 .643-.64V.64A.64.64 0 0 0 7.397 0zM.377 15.625c-.241.24-.377.566-.377.905v6.83c0 .354.288.64.643.64h.804a.64.64 0 0 0 .643-.64v-9.054a.16.16 0 0 0-.274-.113zm2.598-2.055c0-.34.135-.665.377-.905l1.439-1.432a.16.16 0 0 1 .274.113V23.36c0 .354-.288.64-.643.64h-.804a.64.64 0 0 1-.643-.64z"/></svg>
